other/gettr.svg

<svg width="48" height="48" version="1.1" viewBox="0 0 48 48" xmlns="http://www.w3.org/2000/svg">
 <defs>
  <style>.a{fill:none;stroke:#fff;stroke-linecap:round;stroke-linejoin:round;}</style>
 </defs>
 <g>
  <g fill="none" stroke="#fff" stroke-linecap="round" stroke-linejoin="round">
   <path d="m24 25.467h-10.461v0.81999s5.1061 0.31728 5.6396 3.8803h4.821"/>
   <path d="m22.158 45.421-0.73851-8.0744-0.99923-0.73575-0.89764-4.3029"/>
   <path d="m20.154 35.232h3.8455v-2.9245"/>
   <path d="m22.091 35.232-0.38759-2.9245"/>
   <path d="m25.842 45.421 0.73851-8.0744 0.99923-0.73575 0.89764-4.3029"/>
   <path d="m27.846 35.232h-3.8455"/>
   <path d="m25.909 35.232 0.38759-2.9245"/>
   <path d="m24 25.467h10.461v0.81999s-5.1061 0.31728-5.6396 3.8803h-4.821"/>
   <path d="m23.81 23.06s-4.3538-5.2024 0-8.7849c4.3538-3.5825 8.9223-2.7086 11.676-5.1938 0 0-0.72636 3.2079-2.5049 4.3513 0 0 1.5815 0.07683 2.0214-0.58316 0 0-1.4329 2.9729-2.7749 3.6199 0 0 1.3135-0.0056 1.723-0.34095 0 0-0.92019 3.7701-4.0986 4.166-3.1784 0.3959-6.0417 0.57418-6.0417 2.7656z"/>
  </g>
  <circle class="a" cx="24" cy="24" r="21.5"/>
 </g>
</svg>

<svg xmlns="http://www.w3.org/2000/svg" viewBox="0 0 48 48"><defs><style>.a{fill:none;stroke:#fff;stroke-linecap:round;stroke-linejoin:round;}</style></defs><path class="a" d="M24,25.467H13.539v.82s5.1061.3173,5.64,3.88H24"/><path class="a" d="M22.158,45.421,21.42,37.3466l-.9992-.7357-.8977-4.3029"/><path class="a" d="M20.154,35.232H24V32.3075"/><path class="a" d="M22.091,35.232l-.3876-2.9245"/><path class="a" d="M25.842,45.421l.7385-8.0744.9992-.7357.8977-4.3029"/><path class="a" d="M27.846,35.232H24.0005"/><path class="a" d="M25.909,35.232l.3876-2.9245"/><path class="a" d="M24,25.467H34.461v.82s-5.1061.3173-5.64,3.88H24"/><path class="a" d="M23.81,23.06s-4.3538-5.2024,0-8.7849,8.9223-2.7086,11.676-5.1938c0,0-.7264,3.2079-2.5049,4.3513,0,0,1.5815.0768,2.0214-.5832,0,0-1.4329,2.9729-2.7749,3.62a4.0092,4.0092,0,0,0,1.723-.3409s-.92,3.77-4.0986,4.166S23.81,20.8686,23.81,23.06Z"/><circle class="a" cx="24" cy="24" r="21.5"/></svg>
